X:0056
M:6/8
L:1/8
Q:3/8=84
K:D
g   |f2g aba|agf efg|fed c2d|e3  A2
g   |f2g aba|agf efg|fed Adc|d3  D2:|
f/g/|a2g fed|e2d cBA|Bcd efg|fed cB

